images/29650.svg

<?xml version="1.0" encoding="UTF-8"?>
<svg xmlns="http://www.w3.org/2000/svg" xmlns:xlink="http://www.w3.org/1999/xlink" width="300pt" height="300pt" viewBox="0 0 300 300" version="1.1">
<defs>
<g>
<symbol overflow="visible" id="glyph0-0">
<path style="stroke:none;" d="M 0.546875 1.9375 L 0.546875 -7.75 L 6.046875 -7.75 L 6.046875 1.9375 Z M 1.171875 1.328125 L 5.4375 1.328125 L 5.4375 -7.140625 L 1.171875 -7.140625 Z M 1.171875 1.328125 "/>
</symbol>
<symbol overflow="visible" id="glyph0-1">
<path style="stroke:none;" d="M 4.328125 -7.28125 C 3.546875 -7.28125 2.921875 -6.984375 2.453125 -6.390625 C 1.992188 -5.804688 1.765625 -5.007812 1.765625 -4 C 1.765625 -2.988281 1.992188 -2.1875 2.453125 -1.59375 C 2.921875 -1.007812 3.546875 -0.71875 4.328125 -0.71875 C 5.117188 -0.71875 5.742188 -1.007812 6.203125 -1.59375 C 6.660156 -2.1875 6.890625 -2.988281 6.890625 -4 C 6.890625 -5.007812 6.660156 -5.804688 6.203125 -6.390625 C 5.742188 -6.984375 5.117188 -7.28125 4.328125 -7.28125 Z M 4.328125 -8.171875 C 5.453125 -8.171875 6.351562 -7.789062 7.03125 -7.03125 C 7.707031 -6.28125 8.046875 -5.269531 8.046875 -4 C 8.046875 -2.738281 7.707031 -1.726562 7.03125 -0.96875 C 6.351562 -0.21875 5.453125 0.15625 4.328125 0.15625 C 3.203125 0.15625 2.300781 -0.21875 1.625 -0.96875 C 0.957031 -1.71875 0.625 -2.726562 0.625 -4 C 0.625 -5.269531 0.957031 -6.28125 1.625 -7.03125 C 2.300781 -7.789062 3.203125 -8.171875 4.328125 -8.171875 Z M 4.328125 -8.171875 "/>
</symbol>
<symbol overflow="visible" id="glyph0-2">
<path style="stroke:none;" d="M 1.078125 -8.015625 L 2.546875 -8.015625 L 6.09375 -1.3125 L 6.09375 -8.015625 L 7.15625 -8.015625 L 7.15625 0 L 5.6875 0 L 2.125 -6.703125 L 2.125 0 L 1.078125 0 Z M 1.078125 -8.015625 "/>
</symbol>
</g>
</defs>
<g id="surface19385">
<rect x="0" y="0" width="300" height="300" style="fill:rgb(100%,100%,100%);fill-opacity:1;stroke:none;"/>
<path style="fill:none;stroke-width:1.2;stroke-linecap:butt;stroke-linejoin:miter;stroke:rgb(100%,0%,0%);stroke-opacity:1;stroke-miterlimit:10;" d="M 125.273438 104.636719 L 114.144531 97.253906 "/>
<path style="fill:none;stroke-width:1.2;stroke-linecap:butt;stroke-linejoin:miter;stroke:rgb(0%,0%,0%);stroke-opacity:1;stroke-miterlimit:10;" d="M 114.144531 97.253906 L 103.019531 89.875 "/>
<path style="fill:none;stroke-width:1.2;stroke-linecap:butt;stroke-linejoin:miter;stroke:rgb(0%,0%,0%);stroke-opacity:1;stroke-miterlimit:10;" d="M 118.113281 130.367188 L 121.695312 117.5 "/>
<path style="fill:none;stroke-width:1.2;stroke-linecap:butt;stroke-linejoin:miter;stroke:rgb(100%,0%,0%);stroke-opacity:1;stroke-miterlimit:10;" d="M 121.695312 117.5 L 125.273438 104.636719 "/>
<path style=" stroke:none;fill-rule:nonzero;fill:rgb(100%,100%,100%);fill-opacity:1;" d="M 121.273438 98.136719 L 130.273438 98.136719 L 130.273438 111.136719 L 121.273438 111.136719 Z M 121.273438 98.136719 "/>
<g style="fill:rgb(100%,0%,0%);fill-opacity:1;">
  <use xlink:href="#glyph0-1" x="121.273438" y="108.038086"/>
</g>
<path style="fill:none;stroke-width:1.2;stroke-linecap:butt;stroke-linejoin:miter;stroke:rgb(0%,0%,0%);stroke-opacity:1;stroke-miterlimit:10;" d="M 103.019531 89.875 L 92.558594 98.179688 "/>
<path style="fill:none;stroke-width:1.2;stroke-linecap:butt;stroke-linejoin:miter;stroke:rgb(0%,0%,100%);stroke-opacity:1;stroke-miterlimit:10;" d="M 92.558594 98.179688 L 82.101562 106.480469 "/>
<path style="fill:none;stroke-width:1.2;stroke-linecap:butt;stroke-linejoin:miter;stroke:rgb(0%,0%,0%);stroke-opacity:1;stroke-miterlimit:10;" d="M 104.832031 96.457031 L 96.464844 103.097656 "/>
<path style="fill:none;stroke-width:1.2;stroke-linecap:butt;stroke-linejoin:miter;stroke:rgb(0%,0%,100%);stroke-opacity:1;stroke-miterlimit:10;" d="M 96.464844 103.097656 L 88.097656 109.742188 "/>
<path style="fill:none;stroke-width:1.2;stroke-linecap:butt;stroke-linejoin:miter;stroke:rgb(0%,0%,100%);stroke-opacity:1;stroke-miterlimit:10;" d="M 82.101562 106.480469 L 86.765625 118.992188 "/>
<path style="fill:none;stroke-width:1.2;stroke-linecap:butt;stroke-linejoin:miter;stroke:rgb(0%,0%,0%);stroke-opacity:1;stroke-miterlimit:10;" d="M 86.765625 118.992188 L 91.429688 131.503906 "/>
<path style=" stroke:none;fill-rule:nonzero;fill:rgb(100%,100%,100%);fill-opacity:1;" d="M 78.101562 99.980469 L 86.101562 99.980469 L 86.101562 112.980469 L 78.101562 112.980469 Z M 78.101562 99.980469 "/>
<g style="fill:rgb(0%,0%,100%);fill-opacity:1;">
  <use xlink:href="#glyph0-2" x="78.101562" y="109.881836"/>
</g>
<path style="fill:none;stroke-width:1.2;stroke-linecap:butt;stroke-linejoin:miter;stroke:rgb(0%,0%,0%);stroke-opacity:1;stroke-miterlimit:10;" d="M 91.429688 131.503906 L 118.113281 130.367188 "/>
<path style="fill:none;stroke-width:1.2;stroke-linecap:butt;stroke-linejoin:miter;stroke:rgb(0%,0%,0%);stroke-opacity:1;stroke-miterlimit:10;" d="M 93.828125 125.113281 L 115.175781 124.203125 "/>
<path style="fill:none;stroke-width:1.2;stroke-linecap:butt;stroke-linejoin:miter;stroke:rgb(0%,0%,0%);stroke-opacity:1;stroke-miterlimit:10;" d="M 91.429688 131.503906 L 76.667969 153.761719 "/>
<path style="fill:none;stroke-width:1.2;stroke-linecap:butt;stroke-linejoin:miter;stroke:rgb(0%,0%,0%);stroke-opacity:1;stroke-miterlimit:10;" d="M 118.113281 130.367188 L 134.71875 151.28125 "/>
<path style="fill:none;stroke-width:1.2;stroke-linecap:butt;stroke-linejoin:miter;stroke:rgb(0%,0%,0%);stroke-opacity:1;stroke-miterlimit:10;" d="M 134.71875 151.28125 L 124.90625 176.121094 "/>
<path style="fill:none;stroke-width:1.2;stroke-linecap:butt;stroke-linejoin:miter;stroke:rgb(0%,0%,0%);stroke-opacity:1;stroke-miterlimit:10;" d="M 134.71875 151.28125 L 161.136719 147.359375 "/>
<path style="fill:none;stroke-width:1.2;stroke-linecap:butt;stroke-linejoin:miter;stroke:rgb(0%,0%,0%);stroke-opacity:1;stroke-miterlimit:10;" d="M 138.285156 157.105469 L 159.417969 153.96875 "/>
<path style="fill:none;stroke-width:1.2;stroke-linecap:butt;stroke-linejoin:miter;stroke:rgb(0%,0%,0%);stroke-opacity:1;stroke-miterlimit:10;" d="M 124.90625 176.121094 L 141.511719 197.039062 "/>
<path style="fill:none;stroke-width:1.2;stroke-linecap:butt;stroke-linejoin:miter;stroke:rgb(0%,0%,0%);stroke-opacity:1;stroke-miterlimit:10;" d="M 131.488281 174.308594 L 144.773438 191.042969 "/>
<path style="fill:none;stroke-width:1.2;stroke-linecap:butt;stroke-linejoin:miter;stroke:rgb(0%,0%,0%);stroke-opacity:1;stroke-miterlimit:10;" d="M 141.511719 197.039062 L 167.929688 193.117188 "/>
<path style="fill:none;stroke-width:1.2;stroke-linecap:butt;stroke-linejoin:miter;stroke:rgb(0%,0%,0%);stroke-opacity:1;stroke-miterlimit:10;" d="M 167.929688 193.117188 L 172.835938 180.699219 "/>
<path style="fill:none;stroke-width:1.2;stroke-linecap:butt;stroke-linejoin:miter;stroke:rgb(0%,0%,100%);stroke-opacity:1;stroke-miterlimit:10;" d="M 172.835938 180.699219 L 177.742188 168.277344 "/>
<path style="fill:none;stroke-width:1.2;stroke-linecap:butt;stroke-linejoin:miter;stroke:rgb(0%,0%,100%);stroke-opacity:1;stroke-miterlimit:10;" d="M 188.523438 210.125 L 178.226562 201.621094 "/>
<path style="fill:none;stroke-width:1.2;stroke-linecap:butt;stroke-linejoin:miter;stroke:rgb(0%,0%,0%);stroke-opacity:1;stroke-miterlimit:10;" d="M 178.226562 201.621094 L 167.929688 193.117188 "/>
<path style="fill:none;stroke-width:1.2;stroke-linecap:butt;stroke-linejoin:miter;stroke:rgb(0%,0%,100%);stroke-opacity:1;stroke-miterlimit:10;" d="M 190.464844 203.578125 L 182.226562 196.777344 "/>
<path style="fill:none;stroke-width:1.2;stroke-linecap:butt;stroke-linejoin:miter;stroke:rgb(0%,0%,0%);stroke-opacity:1;stroke-miterlimit:10;" d="M 182.226562 196.777344 L 173.992188 189.972656 "/>
<path style="fill:none;stroke-width:1.2;stroke-linecap:butt;stroke-linejoin:miter;stroke:rgb(0%,0%,100%);stroke-opacity:1;stroke-miterlimit:10;" d="M 177.742188 168.277344 L 169.4375 157.820312 "/>
<path style="fill:none;stroke-width:1.2;stroke-linecap:butt;stroke-linejoin:miter;stroke:rgb(0%,0%,0%);stroke-opacity:1;stroke-miterlimit:10;" d="M 169.4375 157.820312 L 161.136719 147.359375 "/>
<path style="fill:none;stroke-width:1.2;stroke-linecap:butt;stroke-linejoin:miter;stroke:rgb(0%,0%,100%);stroke-opacity:1;stroke-miterlimit:10;" d="M 177.742188 168.277344 L 191.070312 169.105469 "/>
<path style="fill:none;stroke-width:1.2;stroke-linecap:butt;stroke-linejoin:miter;stroke:rgb(0%,0%,0%);stroke-opacity:1;stroke-miterlimit:10;" d="M 191.070312 169.105469 L 204.398438 169.933594 "/>
<path style=" stroke:none;fill-rule:nonzero;fill:rgb(100%,100%,100%);fill-opacity:1;" d="M 173.742188 161.777344 L 181.742188 161.777344 L 181.742188 174.777344 L 173.742188 174.777344 Z M 173.742188 161.777344 "/>
<g style="fill:rgb(0%,0%,100%);fill-opacity:1;">
  <use xlink:href="#glyph0-2" x="173.742188" y="171.678711"/>
</g>
<path style="fill:none;stroke-width:1.2;stroke-linecap:butt;stroke-linejoin:miter;stroke:rgb(0%,0%,0%);stroke-opacity:1;stroke-miterlimit:10;" d="M 204.398438 169.933594 L 207.730469 182.867188 "/>
<path style="fill:none;stroke-width:1.2;stroke-linecap:butt;stroke-linejoin:miter;stroke:rgb(0%,0%,100%);stroke-opacity:1;stroke-miterlimit:10;" d="M 207.730469 182.867188 L 211.058594 195.796875 "/>
<path style="fill:none;stroke-width:1.2;stroke-linecap:butt;stroke-linejoin:miter;stroke:rgb(0%,0%,0%);stroke-opacity:1;stroke-miterlimit:10;" d="M 198.980469 174.085938 L 201.644531 184.433594 "/>
<path style="fill:none;stroke-width:1.2;stroke-linecap:butt;stroke-linejoin:miter;stroke:rgb(0%,0%,100%);stroke-opacity:1;stroke-miterlimit:10;" d="M 201.644531 184.433594 L 204.308594 194.777344 "/>
<path style="fill:none;stroke-width:1.2;stroke-linecap:butt;stroke-linejoin:miter;stroke:rgb(0%,0%,0%);stroke-opacity:1;stroke-miterlimit:10;" d="M 204.398438 169.933594 L 212.902344 159.636719 "/>
<path style="fill:none;stroke-width:1.2;stroke-linecap:butt;stroke-linejoin:miter;stroke:rgb(0%,0%,100%);stroke-opacity:1;stroke-miterlimit:10;" d="M 212.902344 159.636719 L 221.40625 149.34375 "/>
<path style="fill:none;stroke-width:1.2;stroke-linecap:butt;stroke-linejoin:miter;stroke:rgb(0%,0%,100%);stroke-opacity:1;stroke-miterlimit:10;" d="M 211.058594 195.796875 L 188.523438 210.125 "/>
<path style=" stroke:none;fill-rule:nonzero;fill:rgb(100%,100%,100%);fill-opacity:1;" d="M 207.058594 189.296875 L 215.058594 189.296875 L 215.058594 202.296875 L 207.058594 202.296875 Z M 207.058594 189.296875 "/>
<g style="fill:rgb(0%,0%,100%);fill-opacity:1;">
  <use xlink:href="#glyph0-2" x="207.058594" y="199.198242"/>
</g>
<path style=" stroke:none;fill-rule:nonzero;fill:rgb(100%,100%,100%);fill-opacity:1;" d="M 184.523438 203.625 L 192.523438 203.625 L 192.523438 216.625 L 184.523438 216.625 Z M 184.523438 203.625 "/>
<g style="fill:rgb(0%,0%,100%);fill-opacity:1;">
  <use xlink:href="#glyph0-2" x="184.523438" y="213.526367"/>
</g>
<path style="fill:none;stroke-width:1.2;stroke-linecap:butt;stroke-linejoin:miter;stroke:rgb(0%,0%,100%);stroke-opacity:1;stroke-miterlimit:10;" d="M 221.40625 149.34375 L 234.574219 151.558594 "/>
<path style="fill:none;stroke-width:1.2;stroke-linecap:butt;stroke-linejoin:miter;stroke:rgb(0%,0%,0%);stroke-opacity:1;stroke-miterlimit:10;" d="M 234.574219 151.558594 L 247.742188 153.773438 "/>
<path style="fill:none;stroke-width:1.2;stroke-linecap:butt;stroke-linejoin:miter;stroke:rgb(0%,0%,100%);stroke-opacity:1;stroke-miterlimit:10;" d="M 221.40625 149.34375 L 216.742188 136.828125 "/>
<path style="fill:none;stroke-width:1.2;stroke-linecap:butt;stroke-linejoin:miter;stroke:rgb(0%,0%,0%);stroke-opacity:1;stroke-miterlimit:10;" d="M 216.742188 136.828125 L 212.078125 124.316406 "/>
<path style=" stroke:none;fill-rule:nonzero;fill:rgb(100%,100%,100%);fill-opacity:1;" d="M 217.40625 142.84375 L 225.40625 142.84375 L 225.40625 155.84375 L 217.40625 155.84375 Z M 217.40625 142.84375 "/>
<g style="fill:rgb(0%,0%,100%);fill-opacity:1;">
  <use xlink:href="#glyph0-2" x="217.40625" y="152.745117"/>
</g>
<path style="fill:none;stroke-width:1.2;stroke-linecap:butt;stroke-linejoin:miter;stroke:rgb(0%,0%,0%);stroke-opacity:1;stroke-miterlimit:10;" d="M 247.742188 153.773438 L 264.75 133.183594 "/>
<path style="fill:none;stroke-width:1.2;stroke-linecap:butt;stroke-linejoin:miter;stroke:rgb(0%,0%,0%);stroke-opacity:1;stroke-miterlimit:10;" d="M 76.667969 153.761719 L 50.011719 152.105469 "/>
<path style="fill:none;stroke-width:1.2;stroke-linecap:butt;stroke-linejoin:miter;stroke:rgb(0%,0%,0%);stroke-opacity:1;stroke-miterlimit:10;" d="M 73.613281 159.867188 L 52.289062 158.542969 "/>
<path style="fill:none;stroke-width:1.2;stroke-linecap:butt;stroke-linejoin:miter;stroke:rgb(0%,0%,0%);stroke-opacity:1;stroke-miterlimit:10;" d="M 88.5625 177.675781 L 76.667969 153.761719 "/>
<path style="fill:none;stroke-width:1.2;stroke-linecap:butt;stroke-linejoin:miter;stroke:rgb(0%,0%,0%);stroke-opacity:1;stroke-miterlimit:10;" d="M 50.011719 152.105469 L 35.25 174.363281 "/>
<path style="fill:none;stroke-width:1.2;stroke-linecap:butt;stroke-linejoin:miter;stroke:rgb(0%,0%,0%);stroke-opacity:1;stroke-miterlimit:10;" d="M 35.25 174.363281 L 47.144531 198.277344 "/>
<path style="fill:none;stroke-width:1.2;stroke-linecap:butt;stroke-linejoin:miter;stroke:rgb(0%,0%,0%);stroke-opacity:1;stroke-miterlimit:10;" d="M 42.066406 173.957031 L 51.582031 193.085938 "/>
<path style="fill:none;stroke-width:1.2;stroke-linecap:butt;stroke-linejoin:miter;stroke:rgb(0%,0%,0%);stroke-opacity:1;stroke-miterlimit:10;" d="M 47.144531 198.277344 L 73.800781 199.933594 "/>
<path style="fill:none;stroke-width:1.2;stroke-linecap:butt;stroke-linejoin:miter;stroke:rgb(0%,0%,0%);stroke-opacity:1;stroke-miterlimit:10;" d="M 73.800781 199.933594 L 88.5625 177.675781 "/>
<path style="fill:none;stroke-width:1.2;stroke-linecap:butt;stroke-linejoin:miter;stroke:rgb(0%,0%,0%);stroke-opacity:1;stroke-miterlimit:10;" d="M 70.039062 194.234375 L 81.847656 176.425781 "/>
</g>
</svg>

<svg xmlns="http://www.w3.org/2000/svg" xmlns:xlink="http://www.w3.org/1999/xlink" width="300pt" height="300pt" viewBox="0 0 300 300"><defs><symbol overflow="visible"><path d="M.547 1.938V-7.75h5.5v9.688zm.625-.61h4.266v-8.47H1.171zm0 0"/></symbol><symbol overflow="visible" id="a"><path d="M4.328-7.28c-.78 0-1.406.296-1.875.89-.46.585-.687 1.382-.687 2.39 0 1.012.226 1.813.687 2.406.47.586 1.094.875 1.875.875.79 0 1.414-.288 1.875-.874.457-.593.688-1.394.688-2.406 0-1.008-.23-1.805-.687-2.39-.46-.594-1.086-.89-1.875-.89zm0-.892c1.125 0 2.024.383 2.703 1.14C7.708-6.28 8.048-5.27 8.048-4c0 1.262-.34 2.273-1.016 3.03C6.353-.22 5.454.157 4.33.157S2.3-.22 1.625-.97c-.668-.75-1-1.757-1-3.03 0-1.27.332-2.28 1-3.03.676-.76 1.578-1.142 2.703-1.142zm0 0"/></symbol><symbol overflow="visible" id="b"><path d="M1.078-8.016h1.47l3.546 6.704v-6.704h1.062V0H5.688L2.124-6.703V0H1.078zm0 0"/></symbol></defs><g><path fill="#fff" d="M0 0h300v300H0z"/><path d="M125.273 104.637l-11.128-7.383" stroke-width="1.2" stroke="#f00" stroke-miterlimit="10" fill="none"/><path d="M114.145 97.254l-11.125-7.38M118.113 130.367l3.582-12.867" stroke-width="1.2" stroke="#000" stroke-miterlimit="10" fill="none"/><path d="M121.695 117.5l3.578-12.863" stroke-width="1.2" stroke="#f00" stroke-miterlimit="10" fill="none"/><path d="M121.273 98.137h9v13h-9zm0 0" fill="#fff"/><use xlink:href="#a" x="121.273" y="108.038" fill="#f00"/><path d="M103.02 89.875L92.56 98.18" stroke-width="1.2" stroke="#000" stroke-miterlimit="10" fill="none"/><path d="M92.56 98.18l-10.458 8.3" stroke-width="1.2" stroke="#00f" stroke-miterlimit="10" fill="none"/><path d="M104.832 96.457l-8.367 6.64" stroke-width="1.2" stroke="#000" stroke-miterlimit="10" fill="none"/><path d="M96.465 103.098l-8.367 6.644M82.102 106.48l4.664 12.512" stroke-width="1.2" stroke="#00f" stroke-miterlimit="10" fill="none"/><path d="M86.766 118.992l4.664 12.512" stroke-width="1.2" stroke="#000" stroke-miterlimit="10" fill="none"/><path d="M78.102 99.98h8v13h-8zm0 0" fill="#fff"/><use xlink:href="#b" x="78.102" y="109.882" fill="#00f"/><path d="M91.43 131.504l26.683-1.137M93.828 125.113l21.348-.91M91.43 131.504l-14.762 22.258M118.113 130.367l16.606 20.914M134.72 151.28l-9.814 24.84M134.72 151.28l26.417-3.92M138.285 157.105l21.133-3.136M124.906 176.12l16.606 20.92M131.488 174.31l13.285 16.733M141.512 197.04l26.418-3.923M167.93 193.117l4.906-12.418" stroke-width="1.2" stroke="#000" stroke-miterlimit="10" fill="none"/><path d="M172.836 180.7l4.906-12.423M188.523 210.125l-10.296-8.504" stroke-width="1.2" stroke="#00f" stroke-miterlimit="10" fill="none"/><path d="M178.227 201.62l-10.297-8.503" stroke-width="1.2" stroke="#000" stroke-miterlimit="10" fill="none"/><path d="M190.465 203.578l-8.238-6.8" stroke-width="1.2" stroke="#00f" stroke-miterlimit="10" fill="none"/><path d="M182.227 196.777l-8.235-6.804" stroke-width="1.2" stroke="#000" stroke-miterlimit="10" fill="none"/><path d="M177.742 168.277l-8.304-10.457" stroke-width="1.2" stroke="#00f" stroke-miterlimit="10" fill="none"/><path d="M169.438 157.82l-8.3-10.46" stroke-width="1.2" stroke="#000" stroke-miterlimit="10" fill="none"/><path d="M177.742 168.277l13.328.828" stroke-width="1.2" stroke="#00f" stroke-miterlimit="10" fill="none"/><path d="M191.07 169.105l13.328.83" stroke-width="1.2" stroke="#000" stroke-miterlimit="10" fill="none"/><path d="M173.742 161.777h8v13h-8zm0 0" fill="#fff"/><use xlink:href="#b" x="173.742" y="171.679" fill="#00f"/><path d="M204.398 169.934l3.332 12.933" stroke-width="1.2" stroke="#000" stroke-miterlimit="10" fill="none"/><path d="M207.73 182.867l3.33 12.93" stroke-width="1.2" stroke="#00f" stroke-miterlimit="10" fill="none"/><path d="M198.98 174.086l2.665 10.348" stroke-width="1.2" stroke="#000" stroke-miterlimit="10" fill="none"/><path d="M201.645 184.434l2.664 10.343" stroke-width="1.2" stroke="#00f" stroke-miterlimit="10" fill="none"/><path d="M204.398 169.934l8.504-10.297" stroke-width="1.2" stroke="#000" stroke-miterlimit="10" fill="none"/><path d="M212.902 159.637l8.504-10.293M211.06 195.797l-22.537 14.328" stroke-width="1.2" stroke="#00f" stroke-miterlimit="10" fill="none"/><path d="M207.06 189.297h8v13h-8zm0 0" fill="#fff"/><use xlink:href="#b" x="207.059" y="199.198" fill="#00f"/><path d="M184.523 203.625h8v13h-8zm0 0" fill="#fff"/><use xlink:href="#b" x="184.523" y="213.526" fill="#00f"/><path d="M221.406 149.344l13.168 2.215" stroke-width="1.2" stroke="#00f" stroke-miterlimit="10" fill="none"/><path d="M234.574 151.56l13.168 2.213" stroke-width="1.2" stroke="#000" stroke-miterlimit="10" fill="none"/><path d="M221.406 149.344l-4.664-12.516" stroke-width="1.2" stroke="#00f" stroke-miterlimit="10" fill="none"/><path d="M216.742 136.828l-4.664-12.512" stroke-width="1.2" stroke="#000" stroke-miterlimit="10" fill="none"/><path d="M217.406 142.844h8v13h-8zm0 0" fill="#fff"/><use xlink:href="#b" x="217.406" y="152.745" fill="#00f"/><path d="M247.742 153.773l17.008-20.59M76.668 153.762l-26.656-1.657M73.613 159.867l-21.324-1.324M88.563 177.676l-11.895-23.914M50.012 152.105L35.25 174.363M35.25 174.363l11.895 23.914M42.066 173.957l9.516 19.13M47.145 198.277l26.656 1.657M73.8 199.934l14.763-22.258M70.04 194.234l11.808-17.808" stroke-width="1.2" stroke="#000" stroke-miterlimit="10" fill="none"/></g></svg>
